X: 72
T: Sancti spiritus adsit nobis
C: Anonymous
%%abc-version 2.0
%%abcx-abcm2ps-target-version 5.9.1 (29 Sep 2008)
%%abc-creator hum2abc beta
%%abcx-conversion-date 2022/03/06 13:05:57
%%abc-copyright Copyright 1994, Lindmayr-Brandl, Andrea
%%abc-edited-by Mair-Gruber, Roland
%%humdrum-veritas 4011377126
%%humdrum-veritas-data 3004309518
%%linebreak <none>
%%barnumbers 0
L: 1/4
M: 2/2
N: Derived from Gas0303e.2-In_honorem_sancti_spiritus-Sancti_spiritus_adsit_nobis.krn
%%staves [1 2 3 4]
V: 1 clef=treble
V: 2 clef=treble-8
V: 3 clef=treble-8
V: 4 clef=bass
K: C
[V:1] c2Ac- | 
[V:2] g2eg- | 
[V:3] c4 | 
[V:4] C,4 | 
[V:1] c/B/A/G/A2 | 
[V:2] g/f/e/d/cd | 
[V:3] A4 | 
[V:4] F,4 | 
[V:1] G2z2 | 
[V:2] e2f2 | 
[V:3] B2B2 | 
[V:4] E,2D,2 | 
[V:1] c2Ac- | 
[V:2] e2e2 | 
[V:3] c4 | 
[V:4] C,2z2 | 
[V:1] c/B/A/G/AB | 
[V:2] zf2e/d/ | 
[V:3] z4 | 
[V:4] F,>E,F,G, | 
[V:1] c2A2 | 
[V:2] e>df2 | 
[V:3] c2c2 | 
[V:4] A,F,2A,- | 
[V:1] z2zc- | 
[V:2] za2g/f/ | 
[V:3] A2A2 | 
[V:4] A,/G,/F,/E,/F,2 | 
[V:1] cB/A/B2 | 
[V:2] gf2e | 
[V:3] B2B2 | 
[V:4] E,>F,G,2 | 
[V:1] Ac>BA/G/ | 
[V:2] f2e2 | 
[V:3] c4 | 
[V:4] F,A,>G,F,/E,/ | 
[V:1] AF2E/D/ | 
[V:2] zA>GE/F/ | 
[V:3] z4 | 
[V:4] F,2D,2 | 
[V:1] E>FGA- | 
[V:2] G2z2 | 
[V:3] c2c2 | 
[V:4] C,>D,E,F,- | 
[V:1] AG/F/A2- | 
[V:2] F>G A/G/F/E/ | 
[V:3] A2A2 | 
[V:4] F,E,/D,/F,2- | 
[V:1] AGF2 | 
[V:2] DEF2 | 
[V:3] B2B2 | 
[V:4] F,E,D,2 | 
[V:1] E2z2 | 
[V:2] G4 | 
[V:3] c2z2 | 
[V:4] C,4 | 
[V:1] zc2B/A/ | 
[V:2] A2A2 | 
[V:3] A>Bcd | 
[V:4] F,2F,2 | 
[V:1] BA2G/F/ | 
[V:2] Gc>Bc/d/ | 
[V:3] BcA2 | 
[V:4] G,F,2E,/F,/ | 
[V:1] E/D/G2^F | 
[V:2] e2zd- | 
[V:3] B2A2 | 
[V:4] G,2D,2 | 
[V:1] G4 | 
[V:2] d/c/B/A/B2 | 
[V:3] G4- | 
[V:4] z2E,2 | 
[V:1] z4 | 
[V:2] c2cc | 
[V:3] G2A2 | 
[V:4] C,2D,F,- | 
[V:1] z4 | 
[V:2] d2e2 | 
[V:3] AAB2 | 
[V:4] F,E,/F,/G,E, | 
[V:1] z4 | 
[V:2] cd>cB/A/ | 
[V:3] A2z2 | 
[V:4] F,F,G,3/F,/ | 
[V:1] z4 | 
[V:2] GA>Gc- | 
[V:3] zc>BA/G/ | 
[V:4] E,F,C,2 | 
[V:1] z2c2 | 
[V:2] cBc3/d/ | 
[V:3] F>EG2 | 
[V:4] D,2C,2 | 
[V:1] ccd2 | 
[V:2] ef2e/f/ | 
[V:3] A2F2 | 
[V:4] z4 | 
[V:1] e2cd- | 
[V:2] gef2 | 
[V:3] E2z2 | 
[V:4] G,2A,3/G,/ | 
[V:1] d/c/B/A/G2 | 
[V:2] d2e2 | 
[V:3] AAB2 | 
[V:4] F,2E,2 | 
[V:1] zc2B/A/ | 
[V:2] c>def | 
[V:3] A2z2 | 
[V:4] F,2E,A,- | 
[V:1] Bd>cc- | 
[V:2] d2e2 | 
[V:3] zAGA | 
[V:4] A,/G,/F,E,3/F,/ | 
[V:1] cBc2 | 
[V:2] d2ec | 
[V:3] B2G2 | 
[V:4] G,2C,2 | 
[V:1] z2c2 | 
[V:2] d2c2 | 
[V:3] z4 | 
[V:4] G,2A,2 | 
[V:1] B2c2 | 
[V:2] z2f2 | 
[V:3] G2A2 | 
[V:4] G,2F,2 | 
[V:1] G2A2 | 
[V:2] def2 | 
[V:3] G2F2 | 
[V:4] G,2z2 | 
[V:1] Gc2B/A/ | 
[V:2] e2c3/d/ | 
[V:3] G2z2 | 
[V:4] C,>D,E,F,- | 
[V:1] Gc2B | 
[V:2] efg2 | 
[V:3] c2d2 | 
[V:4] F,/G,/A,G,2 | 
[V:1] c4- | 
[V:2] ea2g/f/ | 
[V:3] c4 | 
[V:4] A,F,2E,/D,/ | 
[V:1] c4 | 
[V:2] g/f/e/d/cf- | 
[V:3] z2d2 | 
[V:4] E,2F,2 | 
[V:1] z2c2 | 
[V:2] fef2 | 
[V:3] c2d2 | 
[V:4] G,2F,3/E,/ | 
[V:1] B2c2 | 
[V:2] z4 | 
[V:3] e2f2 | 
[V:4] D,2C,2 | 
[V:1] d2ce- | 
[V:2] f3g | 
[V:3] df2e/d/ | 
[V:4] zF,>G,A,/B,/ | 
[V:1] e/d/d2^c | 
[V:2] e/f/ga3/g/ | 
[V:3] cde2 | 
[V:4] CB,A,2 | 
[V:1] d4 | 
[V:2] a/g/f/e/f2 | 
[V:3] d4 | 
[V:4] D,2z2 | 
[V:1] c2B2 | 
[V:2] fe/d/e2 | 
[V:3] z4 | 
[V:4] F,2G,2 | 
[V:1] A4 | 
[V:2] fd2c/B/ | 
[V:3] z2F2 | 
[V:4] A,F,2E,/D,/ | 
[V:1] z4 | 
[V:2] c2d2 | 
[V:3] G2AF- | 
[V:4] E,2D,2 | 
[V:1] z2F3/G/ | 
[V:2] e2d2 | 
[V:3] FEF2 | 
[V:4] C,2D,3/E,/ | 
[V:1] A2B2 | 
[V:2] cf2e | 
[V:3] zc2B | 
[V:4] F,2G,2 | 
[V:1] Ac2B | 
[V:2] f4 | 
[V:3] c2d2 | 
[V:4] F,3G, | 
[V:1] c4 | 
[V:2] e2c2 | 
[V:3] c2z2 | 
[V:4] A,4 | 
[V:1] z4 | 
[V:2] d2e2 | 
[V:3] B2c2 | 
[V:4] z2E,2 | 
[V:1] z4 | 
[V:2] cd>cc- | 
[V:3] A2G2 | 
[V:4] F,2E,C, | 
[V:1] z4 | 
[V:2] cBc2- | 
[V:3] F2G2 | 
[V:4] D,2C,2 | 
[V:1] c2B2 | 
[V:2] c2z2 | 
[V:3] A2B2 | 
[V:4] F,2G,2 | 
[V:1] c2A2 | 
[V:2] z2zd | 
[V:3] A2z2 | 
[V:4] F,4 | 
[V:1] G4 | 
[V:2] ecde | 
[V:3] c2B2 | 
[V:4] E,>F,G,2 | 
[V:1] A2F2 | 
[V:2] f2cf- | 
[V:3] c2A2 | 
[V:4] F,4 | 
[V:1] G2B2 | 
[V:2] fe/d/e2 | 
[V:3] G4 | 
[V:4] z2G,2 | 
[V:1] Ac2B/A/ | 
[V:2] f2c3/d/ | 
[V:3] F4 | 
[V:4] A,3G,/F,/ | 
[V:1] BG2^F/E/ | 
[V:2] e>dB3/c/ | 
[V:3] G2B2 | 
[V:4] E,>F,G,2 | 
[V:1] ^FG2F | 
[V:2] d4 | 
[V:3] A4 | 
[V:4] D,4 | 
[V:1] G4 |]  
[V:2] d4 |]  
[V:3] G4 |]  
[V:4] G,,4 |]  


